public/svgs/aboutus/letter6.svg

<svg width="29" height="31" viewBox="0 0 29 31" fill="none" xmlns="http://www.w3.org/2000/svg">
<g filter="url(#filter0_d_3766_1921)">
<path d="M5.35714 22.3985L5.49533 22.3162C5.79548 22.1379 6.09388 21.9567 6.38284 21.7814C7.04932 21.3766 7.67953 20.9944 8.33568 20.6381C9.17551 20.1818 10.1435 19.8143 11.2946 19.514C12.2965 19.2526 13.3678 19.0892 14.479 19.0286C15.4385 18.9762 16.3363 18.9931 17.2107 19.0804L16.5325 20.1709L15.8517 21.2654C15.0299 22.5868 14.2082 23.9079 13.3864 25.2293C13.3727 25.2514 13.3571 25.2746 13.3388 25.3011C13.3186 25.3308 13.2962 25.364 13.2745 25.3989C13.2231 25.4815 13.1884 25.5551 13.1667 25.6304C13.0884 25.8953 13.0941 26.1032 13.1847 26.2664C13.325 26.5189 13.7075 26.5612 13.9189 26.4947C14.587 26.2825 15.1301 26.0948 15.6282 25.9035C15.7484 25.8576 15.9201 25.7769 16.0247 25.6088C16.1514 25.405 16.1179 25.181 16.0739 25.0084C15.9908 24.6781 15.8897 24.3524 15.774 24.0405C15.7278 23.9158 15.737 23.8691 15.7904 23.7833L15.7928 23.7794C16.3262 22.933 16.8659 22.0672 17.3693 21.2577L17.7028 20.7214L18.0363 20.1853C18.2112 19.904 18.3861 19.6228 18.5615 19.3418C18.7083 19.4335 18.8545 19.5252 19.0003 19.6166L19.0037 19.6187C19.6122 20.0002 20.1866 20.3604 20.7833 20.7149C21.0507 20.8737 21.0397 20.9139 21.0112 21.0217C20.9822 21.1323 20.9947 21.2334 21.0028 21.3002L21.0046 21.3142C21.0419 21.6279 21.1871 21.8518 21.4135 21.9443C21.5416 21.9966 21.8045 22.0462 22.124 21.7898C22.3842 21.5809 22.6066 21.3351 22.7714 21.1443C22.9353 20.954 23.0821 20.7621 23.2372 20.5587C23.3011 20.4747 23.3671 20.3883 23.4334 20.3035L23.5028 20.2144C23.5083 20.2074 23.5133 20.2002 23.5179 20.1928C23.5506 20.1403 23.5625 20.077 23.551 20.0157C23.5374 19.9454 23.4947 19.8845 23.4332 19.8482L23.3358 19.7907C23.12 19.6634 22.9086 19.5394 22.6997 19.4169C22.2302 19.1416 21.7864 18.8814 21.3418 18.6119C20.888 18.3368 20.4284 18.0493 19.9836 17.7709C19.8763 17.7039 19.7695 17.637 19.6623 17.57C19.8754 17.2273 20.0882 16.8843 20.3013 16.5415L20.3158 16.5182L20.3233 16.5063C20.6465 15.9856 20.9697 15.4649 21.2934 14.9446C21.8714 14.0153 22.3432 13.2595 22.7781 12.5659C22.9383 12.3102 23.1228 12.0567 23.3011 11.8113C23.3555 11.736 23.4103 11.6611 23.4647 11.5858C23.5485 11.4689 23.6369 11.355 23.7397 11.2235C23.7896 11.1593 23.8419 11.0921 23.8972 11.0201L23.984 10.9067C23.9891 10.9004 23.9939 10.8937 23.9981 10.8869C24.0363 10.8256 24.0459 10.75 24.0237 10.6804C23.9989 10.603 23.9377 10.5426 23.8602 10.5189L23.7234 10.4768L23.4571 10.3951L22.9489 10.2392L22.8724 10.2158C22.7645 10.1827 22.6483 10.2267 22.5892 10.3218C22.5871 10.3251 22.585 10.3284 22.583 10.3317L22.5441 10.4018C21.994 11.3858 21.4158 12.3285 20.9734 13.0399C20.7355 13.4224 20.4913 13.8103 20.2556 14.1855L20.3596 14.2531L20.3596 14.2532C20.3593 14.2537 20.3589 14.2542 20.3586 14.2547L20.2537 14.1887C20.0171 14.5653 19.7721 14.9546 19.5324 15.3399C19.3646 15.6097 19.2109 15.8587 19.0678 16.0935C18.1225 14.657 17.3376 13.1129 16.7342 11.5024C16.136 9.9051 15.6984 8.19515 15.4335 6.41979C15.3759 6.03154 15.3342 5.62997 15.2941 5.24179C15.2727 5.03564 15.2506 4.82246 15.226 4.61209C15.2249 4.60166 15.2241 4.59075 15.2233 4.57989C15.1844 4.11454 14.8778 4.04501 14.6986 4.0449C14.4942 4.04476 14.3285 4.13087 14.2315 4.28693C14.1474 4.42206 14.1411 4.57494 14.1379 4.65719C14.1337 4.75213 14.13 4.84734 14.1263 4.94247C14.0517 6.92843 14.2389 8.90299 14.6819 10.8109C15.0607 12.4417 15.6361 14.0644 16.3954 15.6449L13.1117 13.5243L11.7587 12.6504C11.7986 12.5872 11.8395 12.5213 11.8825 12.4523C12.0128 12.2428 12.1427 12.0311 12.2679 11.826C12.3928 11.6224 12.5207 11.413 12.6475 11.2091C13.0277 10.5978 13.4893 9.88383 14.028 9.22232L14.1218 9.10717C14.1287 9.09903 14.1346 9.09036 14.1402 9.08148C14.1778 9.02097 14.1878 8.94661 14.1665 8.87754C14.1422 8.79838 14.0796 8.73647 14.0003 8.71283L13.8579 8.67031L13.3801 8.52761L13.0412 8.42639L12.9579 8.40161C12.8496 8.36925 12.7345 8.41427 12.6763 8.50793C12.6703 8.51757 12.665 8.52786 12.6602 8.53846L12.6247 8.6181C12.322 9.3002 11.9523 9.92091 11.6306 10.4381C11.4953 10.6557 11.3551 10.8754 11.2195 11.0878C11.0831 11.3025 10.9419 11.5238 10.8049 11.7441C10.76 11.8163 10.7176 11.8854 10.6768 11.952C10.6701 11.9477 10.6639 11.9437 10.6572 11.9393C10.3695 11.7529 10.0813 11.5674 9.79314 11.3818L9.79064 11.3802C9.07788 10.9212 8.34134 10.447 7.62675 9.96843C7.36449 9.79282 7.05743 9.61131 6.73174 9.68136C6.42424 9.74753 6.23137 10.0088 6.11281 10.1994C6.07276 10.2638 6.03244 10.3343 5.99025 10.4153L5.98667 10.422C5.97936 10.4356 5.97267 10.4483 5.96644 10.4611C5.68134 11.051 5.82418 11.5388 6.37894 11.8714C6.85799 12.1586 7.34612 12.4463 7.81843 12.7246L7.82098 12.7261C8.1749 12.9347 8.54122 13.1505 8.90016 13.3642C9.1001 13.4831 9.30166 13.6098 9.51498 13.7439C9.52757 13.7519 9.53976 13.7595 9.55237 13.7674L9.5498 13.7715L9.47117 13.8979L9.07203 14.5397L8.57898 15.3325C8.28156 15.8107 7.98414 16.2889 7.68673 16.7671C7.67161 16.7914 7.65623 16.8152 7.64041 16.8387C7.62137 16.8684 7.6023 16.8972 7.58415 16.9264C7.53418 17.0067 7.50034 17.0733 7.47395 17.1421C7.36477 17.4256 7.37668 17.6441 7.50818 17.7904C7.65325 17.9516 7.94385 18.0751 8.1805 18.0035C8.73919 17.8349 9.29651 17.6385 9.77487 17.4676C9.91604 17.4172 10.0301 17.3277 10.1041 17.2087C10.1925 17.0666 10.2191 16.8933 10.1816 16.7075C10.1614 16.6076 10.1363 16.4892 10.1041 16.3691C10.0763 16.2646 10.0396 16.1648 10.0038 16.0683C9.94648 15.9135 9.88758 15.7537 9.9024 15.6595C9.91218 15.5987 9.94562 15.5224 10.0053 15.4264C10.0447 15.363 10.0929 15.2949 10.1397 15.2292C10.1921 15.1552 10.246 15.0788 10.2959 14.9986L10.3077 14.9796C10.3653 14.8842 10.4274 14.7833 10.5036 14.6609C10.5482 14.5891 10.5935 14.5173 10.6386 14.4448L15.9844 17.6589C15.955 17.6555 15.9256 17.6521 15.8963 17.6486L15.7358 17.6296C13.9598 17.4217 12.1941 17.4611 10.4884 17.747C8.79355 18.0312 7.11147 18.5663 5.48872 19.3376C5.25157 19.4503 5.03412 19.5746 4.84214 19.7067C4.72511 19.7868 4.64558 19.8649 4.59132 19.9522C4.41105 20.242 4.56884 20.5311 4.62802 20.6398C4.67564 20.7266 4.73029 20.805 4.77871 20.8736L4.80365 20.9096C4.98684 21.1748 5.03804 21.4052 4.96827 21.6573C4.9339 21.7802 4.95067 21.8922 4.96263 21.9744C4.96632 21.9995 4.97011 22.0234 4.97167 22.0425L4.98282 22.203C4.98911 22.2887 5.03901 22.3653 5.11528 22.4051C5.19155 22.445 5.28286 22.4428 5.35714 22.3985Z" fill="black"/>
</g>
<defs>
<filter id="filter0_d_3766_1921" x="0.507812" y="0.0448914" width="27.5273" height="30.4779" filterUnits="userSpaceOnUse" color-interpolation-filters="sRGB">
<feFlood flood-opacity="0" result="BackgroundImageFix"/>
<feColorMatrix in="SourceAlpha" type="matrix" values="0 0 0 0 0 0 0 0 0 0 0 0 0 0 0 0 0 0 127 0" result="hardAlpha"/>
<feOffset/>
<feGaussianBlur stdDeviation="2"/>
<feColorMatrix type="matrix" values="0 0 0 0 0.94902 0 0 0 0 0.866667 0 0 0 0 0.486275 0 0 0 1 0"/>
<feBlend mode="normal" in2="BackgroundImageFix" result="effect1_dropShadow_3766_1921"/>
<feBlend mode="normal" in="SourceGraphic" in2="effect1_dropShadow_3766_1921" result="shape"/>
</filter>
</defs>
</svg>

<svg xmlns="http://www.w3.org/2000/svg" width="29" height="31" fill="none" viewBox="0 0 29 31"><g filter="url(#a)"><path fill="#000" d="m5.357 22.399.138-.083c.3-.178.599-.36.888-.535a47 47 0 0 1 1.953-1.143c.84-.456 1.807-.824 2.959-1.124a16 16 0 0 1 3.184-.485c.96-.053 1.857-.036 2.732.051l-.678 1.09-.681 1.095-2.466 3.964q-.02.033-.047.072l-.065.098a1 1 0 0 0-.107.231c-.079.265-.073.473.018.636.14.253.522.295.734.229.668-.213 1.211-.4 1.71-.591.12-.046.291-.127.396-.295.126-.204.093-.428.049-.6a9 9 0 0 0-.3-.968c-.046-.125-.037-.172.016-.258l.003-.004c.533-.846 1.073-1.712 1.576-2.521l.334-.537.333-.536.525-.843.44.275.003.002a89 89 0 0 0 1.78 1.096c.267.159.256.199.227.307-.029.11-.016.211-.008.278l.002.014c.037.314.182.538.409.63.128.053.39.102.71-.154.26-.21.483-.455.647-.646.164-.19.311-.382.466-.585l.196-.256.07-.089.015-.021a.25.25 0 0 0-.085-.345l-.097-.057-.636-.374c-.47-.275-.914-.536-1.358-.805a109 109 0 0 1-1.358-.841l-.322-.201.64-1.029.014-.023.007-.012a1772 1772 0 0 1 2.455-3.94c.16-.256.345-.51.523-.755l.164-.225c.084-.117.172-.231.275-.363q.075-.095.157-.203l.087-.113.014-.02a.248.248 0 0 0-.138-.368l-.137-.042-.266-.082-.508-.156-.077-.023a.25.25 0 0 0-.289.116l-.039.07a67 67 0 0 1-1.57 2.638l-.718 1.146.104.067-.001.002-.105-.066-.722 1.15-.464.754a23 23 0 0 1-2.334-4.59 25 25 0 0 1-1.3-5.083c-.058-.388-.1-.79-.14-1.178-.021-.206-.043-.42-.068-.63l-.003-.032c-.039-.465-.345-.535-.524-.535a.53.53 0 0 0-.467.242.74.74 0 0 0-.094.37l-.012.285a22.3 22.3 0 0 0 .556 5.869 23.4 23.4 0 0 0 1.713 4.834l-3.283-2.12-1.353-.875.123-.198.386-.626c.125-.204.253-.413.38-.617.38-.611.841-1.325 1.38-1.987l.094-.115.018-.026a.248.248 0 0 0-.14-.368l-.142-.043-.478-.142-.339-.102-.083-.024a.25.25 0 0 0-.298.136l-.035.08c-.303.682-.673 1.303-.994 1.82q-.206.329-.412.65c-.136.215-.277.436-.414.656l-.128.208-.02-.013-.864-.557-.002-.002c-.713-.459-1.45-.933-2.164-1.412-.263-.175-.57-.357-.895-.287-.308.067-.5.328-.62.518q-.06.096-.122.216l-.003.007-.02.04c-.286.589-.143 1.077.412 1.41.479.287.967.574 1.44.853l.002.001c.354.209.72.424 1.08.638.2.12.4.246.614.38l.037.023-.002.005-.079.126-.399.642-.493.793-.892 1.434q-.022.036-.047.072l-.056.087c-.05.08-.084.147-.11.216q-.164.428.034.648c.145.162.436.285.673.213a34 34 0 0 0 1.594-.535.63.63 0 0 0 .33-.26.68.68 0 0 0 .077-.5 3.3 3.3 0 0 0-.178-.64c-.058-.155-.116-.314-.102-.409a.7.7 0 0 1 .103-.233 5 5 0 0 1 .135-.197q.08-.11.156-.23l.012-.02c.057-.095.12-.196.196-.318l.135-.216 5.345 3.214-.088-.01-.16-.02a18.6 18.6 0 0 0-5.248.118c-1.694.284-3.377.82-5 1.59a5 5 0 0 0-.646.37.8.8 0 0 0-.25.245c-.18.29-.023.58.036.688.048.087.102.165.15.234l.026.036c.183.265.234.495.164.747-.034.123-.017.235-.005.317l.009.069.01.16a.248.248 0 0 0 .375.195"/></g><defs><filter id="a" width="27.527" height="30.478" x=".508" y=".045" color-interpolation-filters="sRGB" filterUnits="userSpaceOnUse"><feFlood flood-opacity="0" result="BackgroundImageFix"/><feColorMatrix in="SourceAlpha" result="hardAlpha" values="0 0 0 0 0 0 0 0 0 0 0 0 0 0 0 0 0 0 127 0"/><feOffset/><feGaussianBlur stdDeviation="2"/><feColorMatrix values="0 0 0 0 0.94902 0 0 0 0 0.866667 0 0 0 0 0.486275 0 0 0 1 0"/><feBlend in2="BackgroundImageFix" result="effect1_dropShadow_3766_1921"/><feBlend in="SourceGraphic" in2="effect1_dropShadow_3766_1921" result="shape"/></filter></defs></svg>
